img/services/02.svg

<svg width="71" height="67" viewBox="0 0 71 67" fill="none" xmlns="http://www.w3.org/2000/svg">
<path d="M39.7659 0.406128C38.5183 0.406128 37.5078 1.37872 37.5078 2.57952V9.09968C37.5078 10.3005 38.5183 11.2731 39.7659 11.2731C41.0135 11.2731 42.0239 10.3005 42.0239 9.09968V2.57952C42.0239 1.37872 41.0135 0.406128 39.7659 0.406128Z" fill="#007A65"/>
<path d="M30.7337 0.406128C29.4861 0.406128 28.4756 1.37872 28.4756 2.57952V9.09968C28.4756 10.3005 29.4861 11.2731 30.7337 11.2731C31.9812 11.2731 32.9917 10.3005 32.9917 9.09968V2.57952C32.9917 1.37872 31.9812 0.406128 30.7337 0.406128Z" fill="#007A65"/>
<path d="M48.7981 0.406128C47.5505 0.406128 46.54 1.37872 46.54 2.57952V9.09968C46.54 10.3005 47.5505 11.2731 48.7981 11.2731C50.0457 11.2731 51.0562 10.3005 51.0562 9.09968V2.57952C51.0562 1.37872 50.0457 0.406128 48.7981 0.406128Z" fill="#007A65"/>
<path d="M57.8303 0.406128C56.5827 0.406128 55.5723 1.37872 55.5723 2.57952V9.09968C55.5723 10.3005 56.5827 11.2731 57.8303 11.2731C59.0779 11.2731 60.0884 10.3005 60.0884 9.09968V2.57952C60.0884 1.37872 59.0779 0.406128 57.8303 0.406128Z" fill="#007A65"/>
<path d="M37.5079 36.267H1.37891V29.7468H37.5079V36.267Z" fill="#007A65"/>
<path d="M32.9917 5.83948H37.5078V8.01286H32.9917V5.83948Z" fill="black"/>
<path d="M42.0244 5.83948H46.5405V8.01286H42.0244V5.83948Z" fill="black"/>
<path d="M51.0566 5.83948H55.5728V8.01286H51.0566V5.83948Z" fill="black"/>
<path d="M64.6048 5.8396H60.0887V8.01299H64.6048C66.4723 8.01299 67.9919 9.47568 67.9919 11.2731V14.5331H20.5726V11.2731C20.5726 9.47568 22.0923 8.01299 23.9597 8.01299H28.4758V5.8396H23.9597C20.8469 5.8396 18.3145 8.27705 18.3145 11.2731V25.4001H3.6371C1.76968 25.4001 0.25 26.8628 0.25 28.6602V46.0473C0.25 47.8447 1.76968 49.3073 3.6371 49.3073H18.3145V61.261C18.3145 64.257 20.8469 66.6944 23.9597 66.6944H67.9919C69.2373 66.6944 70.25 65.7197 70.25 64.521V11.2731C70.25 8.27705 67.7176 5.8396 64.6048 5.8396ZM27.3468 49.3073H34.121V53.6541H27.3468V49.3073ZM36.379 49.1074C37.3353 48.7792 38.0884 48.0544 38.4294 47.134H43.1532V53.6541H36.379V49.1074ZM38.6371 29.7469H43.1532V36.267H38.6371V29.7469ZM61.2177 36.267H54.4436V29.7469H61.2177V36.267ZM52.1855 36.267H45.4113V29.7469H52.1855V36.267ZM38.6371 38.4404H43.1532V44.9606H38.6371V38.4404ZM45.4113 38.4404H52.1855V44.9606H45.4113V38.4404ZM54.4436 38.4404H61.2177V44.9606H54.4436V38.4404ZM61.2177 27.5735H54.4436V21.0533H61.2177V27.5735ZM52.1855 27.5735H45.4113V21.0533H52.1855V27.5735ZM43.1532 27.5735H38.4294C38.0884 26.653 37.3353 25.9282 36.379 25.6V21.0533H43.1532V27.5735ZM34.121 25.4001H27.3468V21.0533H34.121V25.4001ZM45.4113 47.134H52.1855V53.6541H45.4113V47.134ZM54.4436 47.134H61.2177V53.6541H57.8306H56.7016H54.4436V47.134ZM58.9597 55.8275H66.3955L58.9597 62.9845V55.8275ZM20.5726 16.7065H67.9919V53.6541H63.4758V18.8799H25.0887V25.4001H20.5726V16.7065ZM2.50806 46.0473V28.6602C2.50806 28.0603 3.01387 27.5735 3.6371 27.5735H35.25C35.8732 27.5735 36.379 28.0603 36.379 28.6602V46.0473C36.379 46.6471 35.8732 47.134 35.25 47.134H3.6371C3.01387 47.134 2.50806 46.6471 2.50806 46.0473ZM20.5726 61.261V49.3073H25.0887V55.8275H56.7016V64.521H23.9597C22.0923 64.521 20.5726 63.0584 20.5726 61.261ZM60.5561 64.521L67.9919 57.3641V64.521H60.5561Z" fill="black"/>
<path d="M25.0889 58.0008H39.7663V60.1742H25.0889V58.0008Z" fill="black"/>
<path d="M44.2822 58.0008H54.4435V60.1742H44.2822V58.0008Z" fill="black"/>
<path d="M30.7338 38.4403C29.8633 38.4403 29.0764 38.7674 28.4757 39.2879C27.8751 38.7663 27.0881 38.4403 26.2177 38.4403C24.3502 38.4403 22.8306 39.903 22.8306 41.7004C22.8306 43.4978 24.3502 44.9605 26.2177 44.9605C27.0881 44.9605 27.8751 44.6334 28.4757 44.1129C29.0764 44.6345 29.8633 44.9605 30.7338 44.9605C32.6012 44.9605 34.1209 43.4978 34.1209 41.7004C34.1209 39.903 32.6012 38.4403 30.7338 38.4403ZM26.2177 42.7871C25.5944 42.7871 25.0886 42.3002 25.0886 41.7004C25.0886 41.1005 25.5944 40.6137 26.2177 40.6137C26.8409 40.6137 27.3467 41.1005 27.3467 41.7004C27.3467 42.3002 26.8409 42.7871 26.2177 42.7871ZM30.7338 42.7871C30.1106 42.7871 29.6048 42.3002 29.6048 41.7004C29.6048 41.1005 30.1106 40.6137 30.7338 40.6137C31.357 40.6137 31.8628 41.1005 31.8628 41.7004C31.8628 42.3002 31.357 42.7871 30.7338 42.7871Z" fill="black"/>
<path d="M4.76611 42.787H13.7984V44.9604H4.76611V42.787Z" fill="black"/>
<path d="M4.76611 38.4403H9.28224V40.6137H4.76611V38.4403Z" fill="black"/>
</svg>

<svg width="71" height="67" fill="none" xmlns="http://www.w3.org/2000/svg"><path d="M39.766.406c-1.248 0-2.258.973-2.258 2.174V9.1c0 1.2 1.01 2.173 2.258 2.173s2.258-.973 2.258-2.173V2.58c0-1.201-1.01-2.174-2.258-2.174zm-9.032 0c-1.248 0-2.258.973-2.258 2.174V9.1c0 1.2 1.01 2.173 2.258 2.173 1.247 0 2.258-.973 2.258-2.173V2.58c0-1.201-1.01-2.174-2.258-2.174zm18.064 0c-1.248 0-2.258.973-2.258 2.174V9.1c0 1.2 1.01 2.173 2.258 2.173s2.258-.973 2.258-2.173V2.58c0-1.201-1.01-2.174-2.258-2.174zm9.032 0c-1.247 0-2.258.973-2.258 2.174V9.1c0 1.2 1.01 2.173 2.258 2.173s2.258-.973 2.258-2.173V2.58c0-1.201-1.01-2.174-2.258-2.174zM37.508 36.267H1.378v-6.52h36.13v6.52z" fill="#007A65"/><path d="M32.992 5.84h4.516v2.173h-4.516V5.839zm9.032 0h4.517v2.173h-4.517V5.839zm9.033 0h4.516v2.173h-4.516V5.839z" fill="#000"/><path d="M64.605 5.84h-4.516v2.173h4.516c1.867 0 3.387 1.463 3.387 3.26v3.26h-47.42v-3.26c0-1.797 1.52-3.26 3.388-3.26h4.516V5.84H23.96c-3.113 0-5.646 2.437-5.646 5.433V25.4H3.637C1.77 25.4.25 26.863.25 28.66v17.387c0 1.798 1.52 3.26 3.387 3.26h14.677v11.954c0 2.996 2.533 5.433 5.646 5.433h44.032c1.245 0 2.258-.974 2.258-2.173V11.273c0-2.996-2.532-5.433-5.645-5.433zM27.347 49.307h6.774v4.347h-6.774v-4.347zm9.032-.2a3.323 3.323 0 002.05-1.973h4.724v6.52H36.38v-4.547zm2.258-19.36h4.516v6.52h-4.516v-6.52zm22.58 6.52h-6.773v-6.52h6.774v6.52zm-9.032 0h-6.774v-6.52h6.774v6.52zM38.637 38.44h4.516v6.52h-4.516v-6.52zm6.774 0h6.774v6.52h-6.774v-6.52zm9.033 0h6.774v6.52h-6.774v-6.52zm6.774-10.866h-6.774v-6.52h6.774v6.52zm-9.033 0h-6.774v-6.52h6.774v6.52zm-9.032 0H38.43a3.323 3.323 0 00-2.05-1.974v-4.547h6.774v6.52zM34.121 25.4h-6.774v-4.347h6.774V25.4zm11.29 21.734h6.774v6.52h-6.774v-6.52zm9.033 0h6.774v6.52h-6.774v-6.52zm4.516 8.694h7.435l-7.435 7.156v-7.157zM20.573 16.706h47.419v36.948h-4.516V18.88H25.089v6.52h-4.516v-8.694zM2.508 46.047V28.66c0-.6.506-1.087 1.13-1.087H35.25c.623 0 1.129.487 1.129 1.087v17.387c0 .6-.506 1.087-1.129 1.087H3.637c-.623 0-1.129-.487-1.129-1.087zm18.065 15.214V49.307h4.516v6.52h31.613v8.694H23.96c-1.868 0-3.387-1.463-3.387-3.26zm39.983 3.26l7.436-7.157v7.157h-7.436z" fill="#000"/><path d="M25.089 58h14.677v2.174H25.09v-2.173zm19.193 0h10.162v2.174H44.282v-2.173zM30.734 38.44c-.87 0-1.658.327-2.258.848a3.433 3.433 0 00-2.258-.848c-1.868 0-3.387 1.463-3.387 3.26 0 1.798 1.52 3.26 3.387 3.26.87 0 1.657-.327 2.258-.847.6.522 1.387.848 2.258.848 1.867 0 3.387-1.463 3.387-3.26 0-1.798-1.52-3.26-3.387-3.26zm-4.516 4.347c-.624 0-1.13-.487-1.13-1.087s.506-1.086 1.13-1.086c.623 0 1.129.486 1.129 1.086 0 .6-.506 1.087-1.13 1.087zm4.516 0c-.623 0-1.13-.487-1.13-1.087s.507-1.086 1.13-1.086c.623 0 1.129.486 1.129 1.086 0 .6-.506 1.087-1.13 1.087zm-25.968 0h9.032v2.173H4.766v-2.173zm0-4.347h4.516v2.174H4.766V38.44z" fill="#000"/></svg>
